X:13603
T:Miss Thompson
R:Hornpipe
C:Trad.
O:England
Z:Paul Hardy's Annex Tunebook 2015 (see www.paulhardy.net). Creative Commons cc by-nc-sa licenced.
M:4/4
L:1/8
Q:1/4=140
K:D
(3ABc|"D"d2df edcB|"A"A2AB AGFE|"D"DFAF "G"DGBG|"D"DFAF "G"GFED|
"D"d2df edcB|"A"A2AB AGFE|"D"DFAd "A7"fedc|"D"d2dc d2:|
|:cd|"A"ecec Acec|"D"fdfd Adfd|"G"gege "D"fdfd|"E7"edcB "A"AGFE|
"G"BGBG DGBd|"D"AFAF DFAd|FAde "A7"fedc|"D"d2dc d2:|

